Images/skills-img-2.svg

<svg width="85" height="100" viewBox="0 0 85 100" fill="none" xmlns="http://www.w3.org/2000/svg">
<path d="M0.00976562 0L7.67267 90L42.0806 100L76.4765 90.0062L84.1514 0H0.00976562Z" fill="#2196F3"/>
<path d="M67.7674 29.4311L66.7998 40.7374L63.8789 74.6311L42.0802 80.8999L42.0622 80.9061L20.2755 74.6311L18.7549 56.9061H29.4289L30.2222 66.0999L42.0682 69.4249L42.0742 69.4186L53.9382 66.0936L55.5549 50.7749L18.2441 50.8811L17.1863 40.4061L56.4504 39.9249L57.2437 28.7124L16.1345 28.8311L15.4434 18.3999H42.0802H68.717L67.7674 29.4311Z" fill="#FAFAFA"/>
</svg>

<svg xmlns="http://www.w3.org/2000/svg" width="85" height="100" fill="none" xmlns:v="https://vecta.io/nano"><path d="M.01 0l7.663 90 34.408 10 34.396-9.994L84.151 0H.01z" fill="#2196f3"/><path d="M67.767 29.431L66.8 40.737l-2.921 33.894L42.08 80.9l-.018.006-21.787-6.275-1.521-17.725h10.674l.793 9.194 11.846 3.325.006-.006 11.864-3.325 1.617-15.319-37.311.106-1.058-10.475 39.264-.481.793-11.213-41.109.119-.691-10.431H42.08h26.637l-.95 11.031z" fill="#fafafa"/></svg>
